source/img/ivon-vk.svg

<svg width="44" height="44" viewBox="0 0 44 44" fill="none" xmlns="http://www.w3.org/2000/svg">
<rect width="44" height="44" rx="22" fill="#CFDCE3"/>
<path fill-rule="evenodd" clip-rule="evenodd" d="M35.9126 15.572C36.1296 14.8897 35.9127 14.3936 34.9521 14.3936H31.7605C30.9549 14.3936 30.5831 14.8277 30.3662 15.2929C30.3662 15.2929 28.7239 19.2624 26.431 21.8364C25.6873 22.5807 25.3465 22.8288 24.9436 22.8288C24.7267 22.8288 24.4479 22.5807 24.4479 21.8985V15.541C24.4479 14.7347 24.2 14.3625 23.5183 14.3625H18.4986C18.0028 14.3625 17.6929 14.7347 17.6929 15.1068C17.6929 15.8821 18.8394 16.0682 18.9633 18.239V22.9529C18.9633 23.9762 18.7774 24.1623 18.3746 24.1623C17.2901 24.1623 14.6563 20.1618 13.076 15.603C12.7662 14.7037 12.4563 14.3625 11.6507 14.3625H8.42814C7.49856 14.3625 7.34363 14.7967 7.34363 15.2619C7.34363 16.0992 8.42814 20.3168 12.3943 25.899C15.0281 29.7135 18.7774 31.7602 22.1549 31.7602C24.2 31.7602 24.4479 31.2951 24.4479 30.5198V27.6357C24.4479 26.7053 24.6338 26.5502 25.2845 26.5502C25.7493 26.5502 26.5859 26.7983 28.476 28.628C30.645 30.7989 31.0169 31.7913 32.2253 31.7913H35.4169C36.3465 31.7913 36.7803 31.3261 36.5324 30.4267C36.2535 29.5274 35.2 28.2249 33.8366 26.6743C33.0929 25.806 31.9774 24.8446 31.6366 24.3794C31.1718 23.7592 31.2957 23.5111 31.6366 22.9529C31.6056 22.9529 35.5098 17.4327 35.9126 15.572Z" fill="white"/>
</svg>

<svg width="44" height="44" viewBox="0 0 44 44" fill="none" xmlns="http://www.w3.org/2000/svg"><rect width="44" height="44" rx="22" fill="#CFDCE3"/><path fill-rule="evenodd" clip-rule="evenodd" d="M35.913 15.572c.217-.682 0-1.178-.96-1.178H31.76c-.805 0-1.177.434-1.394.899 0 0-1.642 3.97-3.935 6.543-.744.745-1.085.993-1.487.993-.217 0-.496-.248-.496-.93V15.54c0-.806-.248-1.178-.93-1.178h-5.02c-.495 0-.805.372-.805.744 0 .775 1.146.961 1.27 3.132v4.714c0 1.023-.186 1.21-.588 1.21-1.085 0-3.719-4.001-5.299-8.56-.31-.9-.62-1.24-1.425-1.24H8.428c-.93 0-1.084.434-1.084.899 0 .837 1.084 5.055 5.05 10.637 2.634 3.814 6.383 5.861 9.76 5.861 2.046 0 2.294-.465 2.294-1.24v-2.884c0-.93.186-1.086.837-1.086.464 0 1.3.248 3.191 2.078 2.169 2.17 2.54 3.163 3.75 3.163h3.19c.93 0 1.364-.465 1.116-1.364-.278-.9-1.332-2.202-2.695-3.753-.744-.868-1.86-1.83-2.2-2.295-.465-.62-.341-.868 0-1.426-.031 0 3.873-5.52 4.276-7.381z" fill="#fff"/></svg>
